icon/scrollbar-background.svg

<svg xmlns="http://www.w3.org/2000/svg" width="2" height="2" fill="none"><path fill="silver" fill-rule="evenodd" d="M1 0H0v1h1v1h1V1H1z" clip-rule="evenodd"/><path fill="#fff" fill-rule="evenodd" d="M2 0H1v1H0v1h1V1h1z" clip-rule="evenodd"/></svg>

<svg width="2" height="2" viewBox="0 0 2 2" fill="none" xmlns="http://www.w3.org/2000/svg">
<path fill-rule="evenodd" clip-rule="evenodd" d="M1 0H0V1H1V2H2V1H1V0Z" fill="#C0C0C0"/>
<path fill-rule="evenodd" clip-rule="evenodd" d="M2 0H1V1H0V2H1V1H2V0Z" fill="white"/>
</svg>
